src/gen3-ui-component/images/icons/user-circle.svg

<?xml version="1.0" encoding="UTF-8"?>
<svg width="31px" height="31px" viewBox="0 0 31 31" version="1.1" xmlns="http://www.w3.org/2000/svg" xmlns:xlink="http://www.w3.org/1999/xlink">
    <!-- Generator: Sketch 52.1 (67048) - http://www.bohemiancoding.com/sketch -->
    <title>Shape</title>
    <desc>Created with Sketch.</desc>
    <g id="Page-1" stroke="none" stroke-width="1" fill="none" fill-rule="evenodd">
        <g id="user-navi-(1)" fill="#FFFFFF" fill-rule="nonzero">
            <path d="M15.4642743,0 C6.93730286,0 0,6.93729851 0,15.4643995 C0,23.9913867 6.93730286,30.9285714 15.4642743,30.9285714 C23.9912686,30.9285714 30.9285714,23.9913867 30.9285714,15.4643995 C30.9285714,6.93729851 23.9912686,0 15.4642743,0 Z M15.4642743,28.5493893 C11.3039314,28.5493893 7.59097143,26.5975696 5.19254857,23.5616334 C7.45572571,21.4717237 10.4064,20.1302105 13.6051429,19.7552151 C14.1560229,19.6905529 14.5890743,19.2539691 14.6491886,18.7025191 C14.70928,18.1511826 14.3802743,17.6314942 13.8563886,17.4498025 C11.8832686,16.7657264 10.5574629,14.9025897 10.5574629,12.8138183 C10.5574629,10.1082512 12.7586057,7.90711794 15.4642743,7.90711794 C18.1699657,7.90711794 20.3711086,10.1082512 20.3711086,12.8138183 C20.3711086,14.9025897 19.0453029,16.7654987 17.0720686,17.4498025 C16.5480686,17.6314942 16.2191771,18.1511826 16.2792686,18.7025191 C16.3393829,19.2538553 16.7724343,19.6905529 17.3233143,19.7552151 C20.5220571,20.1303243 23.4727314,21.4717237 25.7360229,23.5616334 C23.3374857,26.5975696 19.62464,28.5493893 15.4642743,28.5493893 Z M20.5803429,18.0006837 C21.9380114,16.6600811 22.7501714,14.8061657 22.7501714,12.8139321 C22.7501714,8.7965648 19.48176,5.52816343 15.4642743,5.52816343 C11.4468114,5.52816343 8.1784,8.7965648 8.1784,12.8139321 C8.1784,14.8060517 8.99078857,16.6599673 10.3482286,18.0006837 C7.93899429,18.7107157 5.72852571,19.9199445 3.88029714,21.5440133 C2.92244571,19.7264133 2.37917714,17.6577918 2.37917714,15.4645134 C2.37917714,8.2492128 8.24921143,2.379296 15.4642743,2.379296 C22.67936,2.379296 28.5493943,8.2492128 28.5493943,15.4643995 C28.5493943,17.6576779 28.0061257,19.7262994 27.0482743,21.5440133 C25.2000457,19.9198306 22.9895771,18.7107157 20.5803429,18.0006837 Z" id="Shape"></path>
        </g>
    </g>
</svg>

<svg width="31" height="31" xmlns="http://www.w3.org/2000/svg"><path d="M15.464 0C6.937 0 0 6.937 0 15.464 0 23.991 6.937 30.93 15.464 30.93c8.527 0 15.465-6.938 15.465-15.465C30.929 6.937 23.99 0 15.464 0Zm0 28.55c-4.16 0-7.873-1.952-10.271-4.988 2.263-2.09 5.213-3.432 8.412-3.807a1.19 1.19 0 0 0 .251-2.305 4.91 4.91 0 0 1-3.299-4.636 4.912 4.912 0 0 1 4.907-4.907 4.912 4.912 0 0 1 4.907 4.907 4.91 4.91 0 0 1-3.299 4.636 1.19 1.19 0 0 0 .251 2.305c3.2.375 6.15 1.717 8.413 3.807-2.399 3.036-6.111 4.987-10.272 4.987ZM20.58 18a7.287 7.287 0 0 0 2.17-5.186c0-4.017-3.268-7.286-7.286-7.286-4.017 0-7.286 3.269-7.286 7.286 0 1.992.813 3.846 2.17 5.187a17.126 17.126 0 0 0-6.468 3.543 13.003 13.003 0 0 1-1.5-6.08C2.38 8.25 8.25 2.38 15.463 2.38c7.215 0 13.085 5.87 13.085 13.085 0 2.194-.543 4.262-1.5 6.08a17.124 17.124 0 0 0-6.469-3.543Z" fill="#FFF"/></svg>
